X: 244
T: A Nation Once Again
R: barndance
M: 4/4
L: 1/8
K: Dmaj
F>G |A2 Bc d2 cd | f3 e d3 c | B2 e2 d>c Bc | e2 d2 d2 E/F/G |
AB/A/ Bc d2 cd | fg/f/ ef/e/ d3 c | B3 e dc Bc | B2 A2 A4 ||
A3 A/B/ c2 cd | e>f ec A3 A | B3 B/c/ d2 de | f4- f2 f/e/d/c/ |
B2 ^AB g3 f | e2 d2 c2 B2 | A<f- f2 e3 d | d6 ||
A2 |f3 e d2 c2 | B4- BG B/c/d | g3 f e2 d2 | c6 c/d/c/B/ |
A2 A/B/c d2 cd | B2 e>d c2 de | f<g- g2 e3 d | d6 |]
F: https://thesession.org/tunes/8124#setting8124

